!!!OTL: 136a. Donaustrudel.
!!!ARE: Europa, Mitteleuropa, Deutschland, Bayern
!!!SCT: E0136
!!!TXL: @@DE
!!!YEM: Copyright 1995, estate of Helmut Schaffrath.
**kern	**text
*ICvox	*
*M2/4	*
*k[f#c#g#d#]	*
*E:	*
=1	=1
!LO:TX:a:t=Einzelne.	!
!LO:TX:a:t=Nicht zu schnell.	!
!LO:TX:a:t=Bair. Volksmel. (Nach Silcher).	!
{4b	Als
8bL	wir
8aJ	.
=2	=2
8g#/L	jüngſt
8b	.
8eeJ	.
8g#	in
=3	=3
4b/	Re-
8a	-gens-
8f#	-burg
=4	=4
4g#	wa-
8e	-ren,
8r}	.
=5	=5
{4b	Sind
8bL	wir
8aJ	.
=6	=6
8g#/L	ü-
8b	.
8eeJ	-ber
8g#	den
=7	=7
4b/	Stru-
8a	-del
8f#	ge-
=8	=8
4g#	-fah-
8e	-ren,
8r}	.
=9	=9
{4e	Da
8g#L	waren
8bJ	.
=10	=10
4e	vie-
4e	-le
=11	=11
(4a	Hol-
8cc#L	.
8eeJ)	.
=12	=12
4b	-den,
4r}	.
=13	=13
{4a	die
4a	mit-
=14	=14
4g#	-fah-
8g#L	-ren
8aJ	.
=15	=15
2b	woll-
=16	=16
4e	-ten
4r}	.
=17	=17
!LO:TX:a:t=Bei Wiederholung Alle	!
{4e	Schwä-
8g#	-bi-
8b/	-ſche,
=18	=18
4e	bai-
8g#	-ri-
8b/	-ſche
=19	=19
4a	Dirn-
8cc#	-del
8ee	juch-
=20	=20
2b}	-he!
=21	=21
{4dd#	muß
8cc#L	der
8dd#J	.
=22	=22
8eeL	Schiff-
8g#J	.
8cc#L	-mann
8bJ	.
=23	=23
(4b/	füh-
8aL	.
8f#J)	.
=24	=24
4e	-ren.
4r}	.
=25	=25
{4e	Schwä-
8g#	-bi-
8b/	-ſche,
=26	=26
4e	bai-
8g#	-ri-
8b/	-ſche
=27	=27
4a	Dirn-
8cc#	-del
8ee	juch-
=28	=28
2b}	-he!
=29	=29
{4dd#	muß
8cc#L	der
8dd#J	.
=30	=30
8eeL	Schiff-
8g#J	.
8cc#L	-mann
8bJ	.
=31	=31
(4b/	füh-
8aL	.
8f#J)	.
=32	=32
4e	-ren.
4r}	.
==	==
!!!AGN: erzaehlendes Volks - Lied, Schalk -, Schelmen - Lied, Liebe, Ballade ?
!!!ONB: ESAC (Essen Associative Code) Database: ERK1
!!!AMT: simple duple
!!!AIN: vox
!!!EED: Helmut Schaffrath
!!!EEV: 1.0
!!!GTL: Schalks- und Schlemenlieder (Liebesabenteuer und betrogene Liebe)
!!!URL-scan: https://rosdok.uni-rostock.de/mcrviewer/recordIdentifier/rosdok_ppn745146120/iview2/phys_0523.iview2?x=-725.3371323957147&y=600.8965128920972&scale=0.4088357090269527&rotation=0&layout=singlePageLayout
!!!ENC: Anna Maria Matuszewska
!!!EEV: 2024/03/12
*-	*-
